X: 9586
T: David's Song
R: barndance
M: 4/4
K: Dmajor
g4 f2 fd|B4 BB dB|c4 cc ec|d4 d4|
g4 f2 fd|B4 BB dB|c4 cc ec|^d4 ^d4||
a4 f2 fd|B4 B4|b4 g2 ge|c4 cA ec|
d4 dA fd|e4 e4||

